icons/svg/newspaper.svg

﻿<?xml version="1.0" encoding="utf-8"?>
<!DOCTYPE svg PUBLIC "-//W3C//DTD SVG 1.1//EN" "http://www.w3.org/Graphics/SVG/1.1/DTD/svg11.dtd">
<svg xmlns="http://www.w3.org/2000/svg" xmlns:xlink="http://www.w3.org/1999/xlink" version="1.1" baseProfile="full" width="24" height="24" viewBox="0 0 24.00 24.00" enable-background="new 0 0 24.00 24.00" xml:space="preserve">
	<path fill="#000000" fill-opacity="1" stroke-width="0.2" stroke-linejoin="round" d="M 20,10.9999L 4.00002,10.9999L 4.00002,7.99994L 20,7.99994M 20,15.0001L 13,15.0001L 13,13.0001L 20,13.0001M 20,19L 13,19L 13,17.0001L 20,17.0001M 10.9999,19.0001L 3.99999,19L 3.99994,13.0001L 10.9999,13.0002M 20.333,4.66705L 18.667,3L 17,4.66705L 15.333,3L 13.667,4.66705L 12,3L 10.333,4.66705L 8.667,3L 6.99999,4.66705L 5.33298,3L 3.667,4.66705L 1.99999,3L 1.99999,19C 1.99999,20.104 2.89499,21 3.99999,21L 20,21C 21.104,21 21.99,20.104 21.99,19L 22,3L 20.333,4.66705 Z "/>
</svg>

<svg xmlns="http://www.w3.org/2000/svg" version="1.1" baseProfile="full" width="24" height="24" viewBox="0 0 24.00 24.00" xml:space="preserve"><path fill="#000" fill-opacity="1" stroke-width=".2" stroke-linejoin="round" d="M20 11H4V8h16m0 7h-7v-2h7m0 6h-7v-2h7m-9 2H4v-6h7m9.333-8.333L18.667 3 17 4.667 15.333 3l-1.666 1.667L12 3l-1.667 1.667L8.667 3 7 4.667 5.333 3 3.667 4.667 2 3v16c0 1.104.895 2 2 2h16c1.104 0 1.99-.896 1.99-2L22 3l-1.667 1.667z"/></svg>
